svg/color/usdy.svg

<svg xmlns="http://www.w3.org/2000/svg" width="800" height="800" fill="none" viewBox="0 0 800 800"><g clip-path="url(#usdy_svg-a)"><circle cx="400" cy="400" r="400" fill="#122A5F"/><path fill="#fff" fill-rule="evenodd" d="M620 400c0-121.503-98.498-220-220-220v-80c20.71 0 40.931 2.099 60.46 6.095C597.165 134.069 700 255.025 700 400c0 165.685-134.315 300-300 300-130.622 0-241.746-83.481-282.93-200h86.918C240.402 571.234 314.506 620 400 620c121.502 0 220-98.497 220-220M134.602 260c50.3 95.156 150.276 160 265.398 160v-80c-98.596 0-182.044-64.86-210.003-154.24A301 301 0 0 0 134.602 260m89.235-102.857C240.953 238.734 313.322 300 400 300c55.229 0 100 44.772 100 100s-44.771 100-100 100H250.311c32.29 48.239 87.281 80 149.689 80 99.411 0 180-80.589 180-180s-80.589-180-180-180c-55.228 0-100-44.772-100-100v-2.929a299.2 299.2 0 0 0-76.163 40.072" clip-rule="evenodd"/></g><defs><clipPath id="usdy_svg-a"><path fill="#fff" d="M0 0h800v800H0z"/></clipPath></defs></svg>

<svg width="800" height="800" viewBox="0 0 800 800" fill="none" xmlns="http://www.w3.org/2000/svg">
<g clip-path="url(#clip0_4603_65122)">
<circle cx="400" cy="400" r="400" fill="#122A5F"/>
<path fill-rule="evenodd" clip-rule="evenodd" d="M620 400C620 278.497 521.502 180 400 180V100C420.71 100 440.931 102.099 460.46 106.095C597.165 134.069 700 255.025 700 400C700 565.685 565.685 700 400 700C269.378 700 158.254 616.519 117.07 500H203.988C240.402 571.234 314.506 620 400 620C521.502 620 620 521.503 620 400ZM134.602 260C184.902 355.156 284.878 420 400 420V340C301.404 340 217.956 275.14 189.997 185.76C167.921 207.402 149.176 232.429 134.602 260ZM223.837 157.143C240.953 238.734 313.322 300 400 300C455.229 300 500 344.772 500 400C500 455.229 455.229 500 400 500H250.311C282.601 548.239 337.592 580 400 580C499.411 580 580 499.411 580 400C580 300.589 499.411 220 400 220C344.772 220 300 175.228 300 120V117.071C272.56 126.769 246.953 140.346 223.837 157.143Z" fill="white"/>
</g>
<defs>
<clipPath id="clip0_4603_65122">
<rect width="800" height="800" fill="white"/>
</clipPath>
</defs>
</svg>
